X:1
T:Italian Symphony (1st mvt theme)
C:Felix Mendelssohn
M:6/8
L:1/8
Q:1/4=132
K:A
A | e3 dcB | A3 Ace | ede cBA | B3 A3 |
e3 dcB | A3 Acd | edc BAe | A3 e3 |
dcB ABA | A6 |]
